main/svg/wheat2.svg

<svg xmlns="http://www.w3.org/2000/svg" width="32" height="32"><path d="m2.004 19 3.992 3.996L10 19v8.996L6 32l-4.004-4.004ZM12 19l4 3.996L20 19v8.996L16 32l-4-4.004Zm9.996 0 4.008 3.996L29.996 19v8.996L26.004 32 22 27.996Zm0 0" style="stroke:none;fill-rule:nonzero;fill:#000;fill-opacity:1"/></svg>

<svg xmlns="http://www.w3.org/2000/svg" width="32" height="32"><path d="m2 19 4 4 4-4v9l-4 4-4-4Zm10 0 4 4 4-4v9l-4 4-4-4Zm10 0 4 4 4-4v9l-4 4-4-4Zm0 0" style="stroke:none;fill-rule:nonzero;fill:#000;fill-opacity:1"/></svg>
